images/iconVK_dark.svg

<svg width="20" height="12" viewBox="0 0 20 12" fill="none" xmlns="http://www.w3.org/2000/svg">
<g clip-path="url(#clip0_3_190)">
<path d="M19.894 10.3053C19.8698 10.2531 19.8472 10.2098 19.8262 10.1751C19.4792 9.55017 18.8161 8.78308 17.8373 7.87364L17.8166 7.85281L17.8063 7.8426L17.7958 7.83213H17.7853C17.341 7.40865 17.0597 7.12391 16.9419 6.97813C16.7264 6.70043 16.6781 6.41933 16.7959 6.13452C16.8791 5.91933 17.1918 5.46488 17.7331 4.77056C18.0178 4.40258 18.2433 4.10767 18.4099 3.88548C19.611 2.28871 20.1317 1.26835 19.9719 0.82401L19.9099 0.720173C19.8682 0.657659 19.7606 0.60047 19.5872 0.548314C19.4135 0.496268 19.1914 0.487661 18.9206 0.522346L15.9217 0.543062C15.8731 0.525847 15.8037 0.527452 15.7134 0.548314C15.6231 0.569176 15.5779 0.579644 15.5779 0.579644L15.5257 0.605722L15.4843 0.637052C15.4496 0.657768 15.4114 0.694205 15.3697 0.746287C15.3282 0.798188 15.2936 0.859096 15.2658 0.928504C14.9393 1.7685 14.5681 2.54949 14.1515 3.27143C13.8946 3.70191 13.6587 4.07499 13.4433 4.39088C13.2281 4.70666 13.0476 4.93931 12.9019 5.08845C12.756 5.23773 12.6244 5.35733 12.5061 5.44767C12.3881 5.53805 12.298 5.57623 12.2355 5.56226C12.173 5.5483 12.1141 5.53444 12.0583 5.52058C11.9612 5.45806 11.8831 5.37305 11.8242 5.26545C11.765 5.15786 11.7252 5.02244 11.7044 4.85929C11.6836 4.69604 11.6714 4.55562 11.6679 4.43756C11.6646 4.31965 11.6661 4.15286 11.6732 3.93767C11.6804 3.72237 11.6836 3.5767 11.6836 3.50033C11.6836 3.23649 11.6888 2.95014 11.6991 2.64122C11.7096 2.33229 11.7181 2.08753 11.7252 1.90721C11.7323 1.7267 11.7356 1.53574 11.7356 1.33441C11.7356 1.13308 11.7233 0.975188 11.6991 0.860592C11.6752 0.746141 11.6385 0.635046 11.5901 0.527342C11.5414 0.419749 11.4701 0.336518 11.3766 0.277433C11.2829 0.21842 11.1664 0.171589 11.0278 0.136795C10.6598 0.0535279 10.1912 0.00848438 9.62185 0.00148165C8.33069 -0.0123779 7.50105 0.0709981 7.13311 0.251501C6.98733 0.327765 6.85541 0.431967 6.73746 0.563778C6.61247 0.716562 6.59504 0.799938 6.68527 0.813652C7.10186 0.876057 7.39677 1.02534 7.57035 1.26135L7.6329 1.38642C7.68155 1.47665 7.73013 1.6364 7.77875 1.86545C7.8273 2.09449 7.85863 2.34787 7.87241 2.62542C7.90706 3.13228 7.90706 3.56616 7.87241 3.92709C7.83765 4.28817 7.80483 4.56926 7.7735 4.77059C7.74217 4.97192 7.69534 5.13506 7.6329 5.25998C7.57035 5.38494 7.52873 5.46131 7.50787 5.48903C7.48704 5.51675 7.46968 5.53422 7.4559 5.54107C7.36566 5.57565 7.27182 5.59327 7.17469 5.59327C7.07742 5.59327 6.95947 5.54461 6.82065 5.44738C6.68188 5.35014 6.53785 5.21658 6.38856 5.04647C6.23928 4.87633 6.07093 4.63856 5.88342 4.33314C5.69606 4.02772 5.50166 3.66675 5.30033 3.25024L5.13376 2.94817C5.02963 2.75384 4.88739 2.47089 4.70689 2.09956C4.52628 1.72809 4.36664 1.36876 4.22786 1.02165C4.17238 0.875874 4.08904 0.764888 3.97799 0.688515L3.92587 0.657185C3.89122 0.629466 3.8356 0.600032 3.7593 0.568666C3.68289 0.537336 3.60316 0.514869 3.51978 0.501045L0.666572 0.521762C0.375011 0.521762 0.177184 0.587814 0.073018 0.719735L0.0313299 0.782139C0.0105041 0.816898 0 0.872409 0 0.948819C0 1.02519 0.0208258 1.11893 0.0625139 1.22991C0.47903 2.20884 0.931983 3.15293 1.42137 4.06233C1.91076 4.97174 2.33603 5.70429 2.69692 6.25933C3.05789 6.81477 3.42583 7.33899 3.80073 7.83173C4.17563 8.32466 4.42379 8.64055 4.54521 8.77932C4.66677 8.91836 4.76225 9.0223 4.83166 9.09171L5.09204 9.34158C5.25865 9.50823 5.5033 9.7078 5.82612 9.94032C6.14901 10.173 6.50648 10.402 6.89871 10.6278C7.291 10.8533 7.74739 11.0372 8.2681 11.1795C8.78875 11.3219 9.2955 11.3791 9.78842 11.3515H10.986C11.2288 11.3305 11.4128 11.2542 11.5379 11.1224L11.5793 11.0702C11.6072 11.0287 11.6333 10.9644 11.6573 10.8777C11.6817 10.791 11.6938 10.6954 11.6938 10.5914C11.6867 10.2929 11.7094 10.0239 11.7614 9.78447C11.8133 9.54506 11.8724 9.36456 11.9386 9.243C12.0047 9.12155 12.0793 9.01906 12.1624 8.93597C12.2456 8.85271 12.3049 8.80227 12.3397 8.7849C12.3743 8.76743 12.4019 8.75558 12.4227 8.74847C12.5893 8.69296 12.7854 8.74672 13.0112 8.91C13.2369 9.07315 13.4486 9.27458 13.6465 9.51399C13.8444 9.75361 14.0821 10.0225 14.3597 10.3209C14.6376 10.6195 14.8805 10.8414 15.0886 10.9874L15.2968 11.1124C15.4359 11.1957 15.6164 11.2721 15.8386 11.3415C16.0604 11.4109 16.2547 11.4283 16.4215 11.3936L19.0872 11.352C19.3509 11.352 19.556 11.3083 19.7015 11.2217C19.8474 11.1349 19.934 11.0393 19.9619 10.9354C19.9898 10.8313 19.9913 10.7132 19.9672 10.5811C19.9425 10.4494 19.9182 10.3573 19.894 10.3053Z" fill="#90A4B3"/>
</g>
<defs>
<clipPath id="clip0_3_190">
<rect width="20" height="12" fill="white"/>
</clipPath>
</defs>
</svg>

<svg xmlns="http://www.w3.org/2000/svg" width="20" height="12" fill="none"><g clip-path="url(#a)"><path fill="#90A4B3" d="M19.894 10.305a1.36 1.36 0 0 0-.068-.13c-.347-.625-1.01-1.392-1.989-2.301l-.02-.021-.01-.01-.011-.01h-.01c-.445-.424-.726-.71-.844-.855-.216-.278-.264-.559-.146-.843.083-.216.396-.67.937-1.364.285-.368.51-.663.677-.886C19.61 2.29 20.132 1.268 19.972.824L19.91.72c-.042-.062-.15-.12-.323-.172-.174-.052-.396-.06-.666-.026l-3 .021a.389.389 0 0 0-.208.005l-.135.032-.052.026-.042.031a.463.463 0 0 0-.114.11.716.716 0 0 0-.104.182c-.327.84-.698 1.62-1.114 2.342-.257.43-.493.804-.709 1.12a5.387 5.387 0 0 1-.541.697c-.146.15-.278.27-.396.36-.118.09-.208.128-.27.114a7.683 7.683 0 0 1-.178-.041.693.693 0 0 1-.234-.256 1.141 1.141 0 0 1-.12-.406 4.45 4.45 0 0 1-.036-.421 8.705 8.705 0 0 1 .005-.5c.007-.216.01-.361.01-.438 0-.264.006-.55.016-.859l.026-.734c.007-.18.01-.371.01-.573 0-.2-.012-.359-.036-.473a1.62 1.62 0 0 0-.109-.334.561.561 0 0 0-.213-.25 1.203 1.203 0 0 0-.35-.14C10.66.054 10.192.008 9.623 0c-1.291-.013-2.12.07-2.489.25-.146.077-.278.181-.396.313-.125.153-.142.236-.052.25.417.062.712.211.885.447l.063.125c.049.09.097.25.146.48.048.228.08.482.093.76.035.506.035.94 0 1.301a15.51 15.51 0 0 1-.098.844 1.689 1.689 0 0 1-.266.718.18.18 0 0 1-.052.052.78.78 0 0 1-.281.052c-.098 0-.216-.048-.354-.146a2.499 2.499 0 0 1-.432-.4 5.36 5.36 0 0 1-.506-.714A12.448 12.448 0 0 1 5.3 3.25l-.166-.302a25.973 25.973 0 0 1-.427-.848c-.18-.372-.34-.731-.48-1.078a.687.687 0 0 0-.249-.333L3.926.657A.713.713 0 0 0 3.759.57 1.105 1.105 0 0 0 3.52.5L.668.521C.375.522.177.589.073.72L.031.782A.337.337 0 0 0 0 .95c0 .076.02.17.063.28.416.98.869 1.924 1.358 2.833.49.91.915 1.642 1.276 2.197.36.556.729 1.08 1.104 1.573.375.493.623.809.744.947.122.14.217.243.287.313l.26.25c.167.166.411.366.734.598.323.233.68.462 1.073.688.392.225.848.41 1.37.552.52.142 1.027.2 1.52.171h1.197c.243-.02.427-.097.552-.229l.041-.052a.688.688 0 0 0 .078-.192c.025-.087.037-.183.037-.287a3.428 3.428 0 0 1 .067-.807c.052-.239.111-.42.178-.541a1.329 1.329 0 0 1 .4-.458.682.682 0 0 1 .084-.037c.166-.055.362-.001.588.162.226.163.438.365.636.604.197.24.435.509.713.807.278.299.52.52.729.666l.208.125c.139.084.32.16.542.23.221.069.416.086.583.052l2.665-.042c.264 0 .469-.044.614-.13.146-.087.233-.183.26-.287a.806.806 0 0 0 .006-.354 1.308 1.308 0 0 0-.073-.276Z"/></g><defs><clipPath id="a"><path fill="#fff" d="M0 0h20v12H0z"/></clipPath></defs></svg>
